misaka.svg

<svg viewBox="0 0 24 24" xmlns="http://www.w3.org/2000/svg"><path d="M0.986772 10.7786L2.03568 10.7786L1.93217 11.1617C2.06624 11.0425 2.21187 10.9369 2.3669 10.8466C2.53298 10.7527 2.72131 10.7053 2.91205 10.7095C3.16499 10.7095 3.37316 10.7688 3.53655 10.8876C3.70207 11.0095 3.82614 11.1792 3.89192 11.374C4.05084 11.1794 4.24519 11.0167 4.46469 10.8945C4.69514 10.7687 4.95431 10.705 5.21681 10.7095C5.54804 10.7095 5.80912 10.8049 6.00007 10.9958C6.19101 11.1868 6.28647 11.4501 6.28645 11.786C6.28538 11.9008 6.27262 12.0152 6.24835 12.1275C6.22295 12.2494 6.1942 12.3702 6.1621 12.4898L5.63075 14.4772L4.58199 14.4772L5.12713 12.4434C5.14194 12.3877 5.15345 12.3311 5.16161 12.274C5.17013 12.2202 5.17476 12.1658 5.17544 12.1113C5.17544 11.8071 5.01213 11.6549 4.6855 11.6549C4.4961 11.6476 4.31269 11.7219 4.18173 11.859C4.04416 12.0112 3.9469 12.1955 3.89882 12.3951L3.33985 14.4772L2.29098 14.4772L2.83612 12.4434C2.85095 12.3877 2.86248 12.3311 2.87063 12.274C2.87912 12.2202 2.88374 12.1658 2.88446 12.1113C2.88446 11.8071 2.72114 11.6549 2.39449 11.6549C2.2051 11.6476 2.0217 11.7219 1.89076 11.859C1.75316 12.0112 1.65588 12.1955 1.6078 12.3951L1.04887 14.4772L0 14.4772L0.986772 10.7786ZM7.58364 10.7786L8.63251 10.7786L7.63888 14.4773L6.58997 14.4773L7.58364 10.7786ZM9.24695 10.0286C9.19216 10.2285 9.00503 10.363 8.79805 10.3511L1.03843 9.90587L8.79896 9.4738C8.94006 9.46596 9.07631 9.52648 9.16509 9.63642C9.25388 9.74636 9.28435 9.8923 9.24699 10.0286L9.24695 10.0286ZM9.71586 14.5187C9.56399 14.4911 9.41499 14.4495 9.27077 14.3945C9.1253 14.339 8.98549 14.2697 8.85329 14.1875C8.71939 14.1043 8.5965 14.0046 8.48755 13.8907L9.09479 13.2628C9.28802 13.456 9.48359 13.5871 9.6815 13.6561C9.85616 13.7209 10.0404 13.7559 10.2267 13.7597C10.3647 13.7597 10.4728 13.732 10.551 13.6768C10.6291 13.6219 10.6734 13.5306 10.6683 13.4353C10.6683 13.3663 10.6292 13.3054 10.551 13.2524C10.4526 13.189 10.3487 13.1347 10.2404 13.0903C10.0931 13.0305 9.95512 12.9673 9.82642 12.9005C9.70463 12.8385 9.59004 12.7633 9.48472 12.6762C9.3886 12.597 9.30889 12.4997 9.25008 12.3898C9.19009 12.2713 9.16046 12.1397 9.16382 12.0069C9.16235 11.8302 9.1976 11.6551 9.26734 11.4928C9.33461 11.3365 9.43465 11.1965 9.56069 11.0822C9.6966 10.9617 9.85488 10.8691 10.0265 10.8097C10.2261 10.7404 10.4363 10.7065 10.6475 10.7096C10.7947 10.7091 10.9416 10.7242 11.0856 10.7545C11.2222 10.7833 11.356 10.8237 11.4857 10.8752C11.605 10.9223 11.7204 10.9788 11.8307 11.0442C11.9273 11.1014 12.0186 11.1672 12.1033 11.2409L11.5374 11.9034C11.3858 11.7774 11.216 11.675 11.0337 11.5998C10.8864 11.5417 10.7296 11.5113 10.5713 11.5101C10.4425 11.5101 10.3424 11.5376 10.2712 11.5928C10.2004 11.6467 10.1605 11.7317 10.1642 11.8206C10.1642 11.8942 10.2068 11.9598 10.2919 12.0172C10.407 12.0907 10.5283 12.1542 10.6543 12.207C10.7739 12.2622 10.8947 12.3197 11.0166 12.3795C11.1344 12.4367 11.2445 12.5085 11.3443 12.5934C11.439 12.674 11.5185 12.771 11.5789 12.8798C11.6405 12.9954 11.6714 13.1249 11.6686 13.2559C11.6717 13.4438 11.6328 13.63 11.5548 13.801C11.4812 13.959 11.374 14.0991 11.2408 14.2116C11.0995 14.3286 10.9365 14.4166 10.7612 14.4704C10.5635 14.5318 10.3575 14.5621 10.1505 14.5601C10.0047 14.5593 9.8592 14.5455 9.71586 14.5187ZM12.7901 14.4738C12.4012 14.3361 12.144 13.965 12.1518 13.5526C12.1432 13.1695 12.3142 12.8044 12.6141 12.5658C12.7635 12.4474 12.9346 12.3595 13.1179 12.3071C13.3219 12.248 13.5334 12.219 13.7458 12.2208C13.9319 12.2195 14.1178 12.2345 14.3013 12.2657C14.4661 12.2948 14.6287 12.3352 14.7879 12.3864L14.8018 12.3381C14.8109 12.2967 14.8201 12.2543 14.8294 12.2105C14.839 12.1616 14.8436 12.1119 14.8431 12.0621C14.8459 11.9391 14.7894 11.8223 14.6913 11.7481C14.5901 11.6677 14.4084 11.6275 14.1462 11.6274C13.9686 11.6272 13.7915 11.6469 13.6183 11.686C13.4616 11.7202 13.3081 11.7675 13.1594 11.8275L12.9935 10.9993C13.1991 10.9174 13.4115 10.8539 13.6284 10.8095C13.8713 10.76 14.1188 10.7357 14.3668 10.7372C14.8681 10.7372 15.2431 10.8361 15.4916 11.0339C15.7401 11.2317 15.8643 11.5123 15.8642 11.8758C15.8643 11.9707 15.8562 12.0653 15.8401 12.1587C15.8239 12.2508 15.8043 12.3428 15.7814 12.4348L15.2364 14.4773L14.222 14.4773L14.3324 14.0495C14.1932 14.2045 14.0243 14.3301 13.8356 14.4187C13.645 14.5051 13.4377 14.5487 13.2284 14.5463C13.0791 14.5483 12.9307 14.5237 12.7901 14.4738ZM13.9908 13.7699C14.0897 13.7308 14.1818 13.6761 14.2634 13.6078C14.3458 13.5391 14.4179 13.459 14.4773 13.3697C14.5362 13.2819 14.5804 13.1852 14.6084 13.0833L14.636 12.9867C14.533 12.9467 14.4268 12.9155 14.3186 12.8935C14.196 12.8679 14.0711 12.8552 13.9459 12.8554C13.7251 12.8554 13.5446 12.9072 13.4042 13.0107C13.2671 13.1077 13.1881 13.2672 13.1938 13.4351C13.1912 13.5446 13.2396 13.6491 13.3249 13.718C13.4122 13.7917 13.5295 13.8285 13.6768 13.8285C13.7842 13.8291 13.8908 13.8093 13.9908 13.77L13.9908 13.7699ZM17.4929 9.43985L18.5418 9.43985L17.8379 12.0483L19.3354 10.7786L20.7017 10.7786L18.9145 12.2208L19.7216 14.4773L18.5486 14.4773L18.0241 12.9109L17.4929 13.3387L17.1893 14.4773L16.1404 14.4773L17.4929 9.43985ZM20.9258 14.4738C20.5369 14.3361 20.2797 13.965 20.2874 13.5526C20.2789 13.1695 20.4499 12.8044 20.7498 12.5658C20.8991 12.4474 21.0703 12.3595 21.2536 12.3071C21.4576 12.248 21.6691 12.219 21.8815 12.2208C22.0676 12.2195 22.2535 12.2345 22.437 12.2657C22.6017 12.2948 22.7643 12.3352 22.9235 12.3864L22.9373 12.3381C22.9464 12.2967 22.9556 12.2543 22.9649 12.2105C22.9746 12.1616 22.9792 12.1119 22.9787 12.0621C22.9815 11.9391 22.925 11.8223 22.8269 11.7481C22.7256 11.6677 22.5439 11.6275 22.2817 11.6274C22.1041 11.6272 21.9271 11.6469 21.7538 11.686C21.5972 11.7202 21.4437 11.7675 21.2951 11.8275L21.1293 10.9993C21.3349 10.9174 21.5474 10.8539 21.7642 10.8095C22.0071 10.76 22.2546 10.7357 22.5026 10.7372C23.0039 10.7372 23.3789 10.8361 23.6274 11.0339C23.8759 11.2317 24.0001 11.5123 24 11.8758C24.0001 11.9707 23.992 12.0653 23.9758 12.1587C23.9597 12.2508 23.9401 12.3428 23.9172 12.4348L23.372 14.4773L22.3576 14.4773L22.4681 14.0495C22.3289 14.2046 22.1599 14.3301 21.9713 14.4187C21.7807 14.5052 21.5734 14.5488 21.364 14.5464C21.2148 14.5483 21.0664 14.5238 20.9258 14.4738ZM22.1265 13.7699C22.2254 13.7308 22.3175 13.6761 22.3991 13.6078C22.4815 13.5392 22.5535 13.459 22.613 13.3697C22.6718 13.2819 22.7161 13.1852 22.7441 13.0833L22.7716 12.9867C22.6687 12.9467 22.5625 12.9155 22.4543 12.8935C22.3317 12.8679 22.2068 12.8552 22.0816 12.8554C21.8608 12.8554 21.6802 12.9072 21.5399 13.0107C21.4028 13.1077 21.3237 13.2672 21.3295 13.4351C21.3269 13.5446 21.3753 13.6491 21.4605 13.718C21.5479 13.7917 21.6652 13.8285 21.8125 13.8285C21.9199 13.8291 22.0265 13.8093 22.1265 13.77L22.1265 13.7699Z" fill="#000000"/></svg>

<svg viewBox="0 0 24 24" xmlns="http://www.w3.org/2000/svg"><path d="M.987 10.779h1.049l-.104.383c.134-.12.28-.225.435-.315a1.06 1.06 0 0 1 .545-.137c.253 0 .461.059.625.178.165.121.29.291.355.486.159-.195.353-.357.573-.48.23-.125.49-.189.752-.184.331 0 .592.095.783.286.191.19.286.454.286.79 0 .115-.013.23-.038.341a6.559 6.559 0 0 1-.086.363l-.531 1.987H4.582l.545-2.034a1.467 1.467 0 0 0 .048-.332c0-.304-.163-.456-.49-.456a.661.661 0 0 0-.503.204 1.228 1.228 0 0 0-.283.536l-.56 2.082H2.292l.545-2.034a1.461 1.461 0 0 0 .048-.332c0-.304-.163-.456-.49-.456a.661.661 0 0 0-.503.204 1.228 1.228 0 0 0-.283.536l-.56 2.082H0l.987-3.698Zm6.597 0h1.049l-.994 3.698H6.59l.994-3.698Zm1.663-.75a.44.44 0 0 1-.449.322l-7.76-.445L8.8 9.474a.44.44 0 0 1 .448.555Zm.469 4.49a2.507 2.507 0 0 1-.863-.332 1.877 1.877 0 0 1-.365-.296l.607-.628a1.585 1.585 0 0 0 1.132.497.555.555 0 0 0 .324-.083.277.277 0 0 0 .117-.242c0-.069-.039-.13-.117-.183a1.914 1.914 0 0 0-.31-.162 4.898 4.898 0 0 1-.415-.19 1.86 1.86 0 0 1-.341-.224.955.955 0 0 1-.235-.286.803.803 0 0 1-.086-.383 1.275 1.275 0 0 1 .103-.514c.068-.157.168-.296.294-.41.136-.121.294-.214.466-.273.2-.07.41-.104.62-.1.148 0 .295.014.439.044a2.458 2.458 0 0 1 .745.29c.096.057.188.123.272.197l-.566.662a1.954 1.954 0 0 0-.503-.303 1.287 1.287 0 0 0-.463-.09.48.48 0 0 0-.3.083.272.272 0 0 0-.107.228c0 .073.043.139.128.196.115.074.236.137.362.19.12.055.24.113.363.172.117.058.228.13.327.214.095.081.175.178.235.287a.765.765 0 0 1 .09.376 1.202 1.202 0 0 1-.428.956 1.393 1.393 0 0 1-.48.258 1.994 1.994 0 0 1-.61.09c-.146 0-.292-.014-.435-.041Zm3.074-.045a.958.958 0 0 1-.638-.921 1.226 1.226 0 0 1 .462-.987c.15-.119.32-.207.504-.259a2.19 2.19 0 0 1 .628-.086 3.182 3.182 0 0 1 1.042.165l.014-.048.027-.127a.732.732 0 0 0 .014-.149.383.383 0 0 0-.152-.314c-.1-.08-.283-.12-.545-.12-.177 0-.355.019-.528.058a2.85 2.85 0 0 0-.459.142l-.166-.829a3.59 3.59 0 0 1 1.373-.262c.502 0 .877.1 1.126.297.248.198.372.478.372.842 0 .095-.008.19-.024.283a4.041 4.041 0 0 1-.059.276l-.545 2.042h-1.014l.11-.428a1.431 1.431 0 0 1-1.104.497 1.26 1.26 0 0 1-.438-.072Zm1.2-.704a.994.994 0 0 0 .273-.162c.083-.069.155-.149.214-.238a.98.98 0 0 0 .131-.287l.028-.096a1.95 1.95 0 0 0-.69-.132.89.89 0 0 0-.542.156.499.499 0 0 0-.21.424.353.353 0 0 0 .13.283c.088.074.206.11.353.11.107.001.214-.019.314-.058Zm3.503-4.33h1.049l-.704 2.608 1.497-1.27h1.367l-1.788 1.443.808 2.256h-1.173l-.525-1.566-.531.428-.304 1.138H16.14l1.353-5.037Zm3.433 5.034a.958.958 0 0 1-.639-.921 1.226 1.226 0 0 1 .463-.987c.15-.119.32-.207.504-.259a2.19 2.19 0 0 1 .627-.086 3.182 3.182 0 0 1 1.043.165l.013-.048.028-.127a.725.725 0 0 0 .014-.149.383.383 0 0 0-.152-.314c-.101-.08-.283-.12-.545-.12-.178 0-.355.019-.528.058-.157.034-.31.082-.459.142l-.166-.829a3.59 3.59 0 0 1 1.373-.262c.502 0 .877.1 1.125.297.249.198.373.478.373.842 0 .095-.008.19-.024.283a3.98 3.98 0 0 1-.059.276l-.545 2.042h-1.014l.11-.428c-.14.156-.308.281-.497.37a1.43 1.43 0 0 1-.607.127 1.26 1.26 0 0 1-.438-.072Zm1.2-.704a.994.994 0 0 0 .273-.162c.082-.069.154-.149.214-.238a.983.983 0 0 0 .131-.287l.028-.096a1.946 1.946 0 0 0-.69-.132.89.89 0 0 0-.542.156.499.499 0 0 0-.21.424.353.353 0 0 0 .13.283c.088.074.205.11.352.11.108.001.214-.019.314-.058Z"/></svg>
